!! 00000] TT[00
!! NN
!!!OTL: Chu ge
!!!ARE: Taiwan, Hualian (Osten)
!! Ethnic Group: Gaoshan
!! IV, 606
!!!SCT: C0442
!!!YEM: Copyright 1995, estate of Helmut Schaffrath.
**kern
*ICvox
*Ivox
*M2/4
*k[f#c#]
*D:
{8B
8B
8B
8B
=1
8d
8e
8f#
8a
=2
4.b
16a
16f#
=3
4a}
{8b
8dd
=4
4b
8a
16f#
16e
=5
8f#
8a
8a
16f#
16e
=6
8f#
16e
16d
4B}
=7
{4f#
8e
8f#
=8
8a
4e
8d
=9
8B
8d
8d
16B
16A
=10
[2B
=11
4.B]
8r}
=12
{8b
8b
8b
8b
=13
8b
8dd
8ee
8dd
=14
4b
8a
16f#
16a
=15
4b}
{8a
16b
16dd
=16
4b
8a
16f#
16e
=17
8f#
8a
8a
16f#
16e
=18
8f#
16e
16d
4B}
=19
{4f#
8e
8f#
=20
8a
4e
8d
=21
8B
8d
8d
16B
16A
=22
[2B
=23
4.B]
8r}
=24
{8B
8B
8B
8B
=25
8d
8e
8f#
8a
=26
4.b
16a
16f#
=27
4a}
{8b
8dd
=28
4b
8a
16f#
16e
=29
8f#
8a
8a
16f#
16e
=30
8f#
16e
16d
4B}
=31
{4f#
8e
8f#
=32
8a
4e
8d
=33
8B
8d
8d
16B
16A
=34
[2B
=35
4.B]
8r}
=36
{8b
8b
8b
8b
=37
8b
8dd
8ee
8dd
=38
4b
8a
16f#
16a
=39
4b}
{8a
16b
16dd
=40
4b
8a
16f#
16e
=41
8f#
8a
8a
16f#
16e
=42
8f#
16e
16d
4B}
=43
{4f#
8e
8f#
=44
8a
4e
8d
=45
8b
8dd
8dd
16b
16a
=46
[2b
=47
4.b]
8r}
==
!!!AGN: Laodong ge. FunÅ chongmi shi chang. Wuge
!! Bei dieser Taetigkeit spricht man mit seinem Ehepartner. Diese
!!    Art Arbeitslied wird oft in eine Tanzform verwandelt. Es existiert
!!    auch bei anderen nationalen Minderheiten.
!!!ONB: ESAC (Essen Associative Code) Database: CHINA
!!!AMT: simple duple
!!!AIN: vox
!!!EED: Helmut Schaffrath
!!!EEV: 1.0
*-
!!!ONB: Tied note syntax fixed by Craig Sapp, 2004/05/03/
